X: 20112
M: C
L: 1/8
K: D
d2d>d d2(ef) | g2g>g g2d2 | (ed)(gd) (ed)(BG) | A2A>A A2AB/c/ |\
d2d>d d2(ef) | g2g>g g2d2 | (ed)(gd) (ed)(BG) | A2d>d d2 :|
|: D>F |\


